X:19117
T:Xiringelu
R:Saltn
C:Tradicional
S:Msica Tradicional Asturiana, (C) Tello & Tito. Asturies, 2001.
S:http://pagina.de/MusTradAst <telloytito@asturies.org>
O:Naves (Llanes)
A:Asturies
Z:ByD IDEA
M:2/4
L:1/8
Q:1/4=208
K:C
P:A
E2|G2 G2|G2 G2|G4|
G2 A2|c4|B2 A2|G4|
B4|A3 B|A2 G2|F4-|
F2 A2|G3 A|G2 F2|E4-|
E2 G2|E3 F|G2 A2|A3 G|
E2 G2|
|G3 F|D2 A2|A4|G4|
E3 F|G2 A2|A3 G|E2 G2|
G2 F2|D2 F2|E4-|E4|
P:B
|z3 G|ce cG|ce cG|ce cB|
|AG EG|GF DF|AG EG|ce cB|
|AG EG|GF DF|EG EG|EF GA|
|AG EG|GF DF||AG EG|EF GA|
|AG EG|GF DF|EG EG|DF GA|
